
//--show invert for audioserial again
//record into audacity


//passive volume control
//pot
//10k and 1k resistors 

{SoundIn.ar([0, 1])}.play
{DelayN.ar(SoundIn.ar([0, 1]), 1, 1)}.play


//passive filters
//high pass
//low pass
//band pass




